SVG-Logos/Frameworks-Languages-IDEs/Web Dev, Animation/LottieDocs.svg

<svg width="178" height="33" viewBox="0 0 178 33" fill="none" xmlns="http://www.w3.org/2000/svg">
<path d="M43.6496 7.27831H39.5892V25.4316H51.9879V21.9512H43.6496V7.27831Z" fill="black"/>
<path d="M60.0121 10.6422C55.6902 10.6422 52.2692 13.9775 52.2692 18.1808C52.2692 22.384 55.6902 25.7281 60.0121 25.7281C64.3339 25.7281 67.7836 22.3928 67.7836 18.1873C67.7836 13.9819 64.3603 10.6422 60.0121 10.6422ZM60.0121 22.1247C57.8368 22.1247 56.2131 20.4724 56.2131 18.1698C56.2131 15.8671 57.8368 14.228 60.0121 14.228C62.1873 14.228 63.811 15.9088 63.811 18.1698C63.811 20.4307 62.1873 22.1247 60.0121 22.1247Z" fill="black"/>
<path d="M84.0758 22.3577C83.3793 22.3577 82.7707 21.9512 82.7707 20.7054V14.907H86.4751V11.7782H82.7707V7.84301H78.886V11.7782H73.7841V7.84301H69.8995V11.7782H67.7836V14.907H69.8995V20.7625C69.8995 24.0386 71.4661 25.7216 74.3642 25.7216C75.6729 25.7242 76.9534 25.3421 78.0467 24.623L76.9481 21.7535C76.398 22.1253 75.7549 22.3361 75.0914 22.3621C74.3949 22.3621 73.7863 21.9556 73.7863 20.7098V14.907H78.8882V20.7625C78.8882 24.0386 80.4526 25.7216 83.3529 25.7216C84.6615 25.7238 85.942 25.3418 87.0355 24.623L85.9369 21.7535C85.3853 22.1251 84.7405 22.3344 84.0758 22.3577Z" fill="black"/>
<path d="M108.636 17.1591C108.043 13.0833 104.49 10.2006 100.586 10.7696C99.6037 10.9037 98.6584 11.2324 97.8053 11.7366C96.9521 12.2408 96.2081 12.9103 95.6171 13.7057C95.026 14.5012 94.5998 15.4067 94.3633 16.3691C94.1269 17.3315 94.085 18.3314 94.2401 19.3102C94.9278 24.0451 98.9991 26.2379 103.187 25.6271C105.084 25.3605 106.86 24.5422 108.295 23.2739L106.459 20.7274C105.41 21.6336 104.122 22.218 102.75 22.4104C100.856 22.6851 99.0826 21.971 98.3356 20.0638L108.75 18.5477C108.738 18.0831 108.7 17.6195 108.636 17.1591ZM97.9049 17.5172C98.0148 15.6562 99.276 14.2412 100.939 14.0017C101.784 13.8703 102.648 14.0515 103.37 14.5114C104.091 14.9712 104.62 15.6782 104.857 16.4999L97.9049 17.5172Z" fill="black"/>
<path d="M92.4823 11.7782H88.5976V25.4316H92.4823V11.7782Z" fill="black"/>
<path d="M92.4823 7.27831H88.5976V10.2973H92.4823V7.27831Z" fill="black"/>
<path d="M23.9033 0.5H8.0967C3.62503 0.5 0 4.12501 0 8.59668V24.4033C0 28.875 3.62503 32.5 8.0967 32.5H23.9033C28.375 32.5 32 28.875 32 24.4033V8.59668C32 4.12501 28.375 0.5 23.9033 0.5Z" fill="#00DDB3"/>
<path d="M24.3208 7.6672C18.8124 7.6672 16.7712 11.6002 15.1299 14.7598L14.0577 16.7812C12.3197 20.1319 11.0212 22.1687 7.67486 22.1687C7.46711 22.1687 7.26138 22.2096 7.06945 22.2891C6.87751 22.3686 6.70309 22.4852 6.55619 22.6321C6.40929 22.779 6.29271 22.9534 6.2132 23.1453C6.1337 23.3372 6.09283 23.5429 6.09283 23.7507C6.09341 24.1701 6.26028 24.5721 6.55684 24.8687C6.85339 25.1652 7.25547 25.3321 7.67486 25.3327C13.1854 25.3327 15.2266 21.3997 16.8679 18.2401L17.938 16.2187C19.6781 12.868 20.9766 10.8312 24.3208 10.8312C24.5287 10.8315 24.7346 10.7907 24.9268 10.7114C25.119 10.632 25.2937 10.5155 25.4408 10.3686C25.588 10.2217 25.7047 10.0472 25.7844 9.85509C25.864 9.66301 25.905 9.45711 25.905 9.24918C25.9044 8.82941 25.7372 8.42704 25.4402 8.13042C25.1432 7.8338 24.7405 7.66719 24.3208 7.6672Z" fill="white"/>
<path d="M110.876 25.4643H117.534C123.163 25.4643 126.709 21.4857 126.709 16.6953C126.709 11.9048 123.163 7.92622 117.534 7.92622H110.876V25.4643ZM113.041 23.5697V9.82076H117.398C121.62 9.82076 124.462 12.7438 124.462 16.6953C124.462 20.6467 121.62 23.5697 117.398 23.5697H113.041Z" fill="black"/>
<path d="M136.153 25.7349C140.023 25.7349 143.082 22.7037 143.082 18.8875C143.082 15.0443 140.023 12.013 136.153 12.013C132.283 12.013 129.225 15.0443 129.225 18.8875C129.225 22.7037 132.283 25.7349 136.153 25.7349ZM136.153 23.7321C133.42 23.7321 131.336 21.6481 131.336 18.8875C131.336 16.0998 133.42 14.0158 136.153 14.0158C138.887 14.0158 140.971 16.0998 140.971 18.8875C140.971 21.6481 138.887 23.7321 136.153 23.7321Z" fill="black"/>
<path d="M152.382 25.7349C154.357 25.7349 156.144 25.0042 157.416 23.7863L156.225 22.2436C155.305 23.1638 153.951 23.7321 152.463 23.7321C149.567 23.7321 147.564 21.6211 147.564 18.8875C147.564 16.0728 149.648 14.0158 152.409 14.0158C153.789 14.0158 154.98 14.4759 155.792 15.2337L157.091 13.7722C155.846 12.6626 154.195 12.013 152.382 12.013C148.511 12.013 145.453 15.0443 145.453 18.8875C145.453 22.7307 148.511 25.7349 152.382 25.7349Z" fill="black"/>
<path d="M164.309 25.7349C166.88 25.7349 169.722 24.4899 169.722 21.7023C169.722 19.104 167.259 18.2109 164.877 17.6696C163.335 17.3448 161.873 17.0471 161.873 15.748C161.873 14.7195 163.145 13.9617 164.498 13.9617C165.879 13.9617 167.042 14.3406 168.152 15.0984L168.964 13.4204C167.611 12.5002 166.285 12.013 164.471 12.013C162.252 12.013 159.762 13.3933 159.762 15.775C159.762 18.2921 161.981 18.9687 164.417 19.5912C166.014 19.9972 167.611 20.3761 167.611 21.7564C167.611 22.9472 166.122 23.7863 164.309 23.7863C162.387 23.7863 160.98 23.0014 160.006 22.0541L159.167 23.7321C159.924 24.517 161.63 25.7349 164.309 25.7349Z" fill="black"/>
</svg>

<svg xmlns="http://www.w3.org/2000/svg" fill="none" viewBox="0 0 178 33"><path fill="#000" d="M43.65 7.278h-4.06v18.154h12.398v-3.48H43.65V7.277ZM60.012 10.642c-4.322 0-7.743 3.335-7.743 7.539 0 4.203 3.421 7.547 7.743 7.547 4.322 0 7.772-3.335 7.772-7.54 0-4.206-3.424-7.546-7.772-7.546Zm0 11.483c-2.175 0-3.799-1.653-3.799-3.955 0-2.303 1.624-3.942 3.8-3.942 2.174 0 3.798 1.68 3.798 3.942 0 2.26-1.624 3.955-3.799 3.955ZM84.076 22.358c-.697 0-1.305-.407-1.305-1.653v-5.798h3.704v-3.129h-3.704V7.843h-3.885v3.935h-5.102V7.843H69.9v3.935h-2.115v3.129h2.115v5.855c0 3.277 1.567 4.96 4.465 4.96a6.677 6.677 0 0 0 3.683-1.099l-1.099-2.87a3.565 3.565 0 0 1-1.857.61c-.696 0-1.305-.407-1.305-1.653v-5.803h5.102v5.855c0 3.277 1.565 4.96 4.465 4.96a6.684 6.684 0 0 0 3.683-1.099l-1.1-2.87a3.554 3.554 0 0 1-1.86.605ZM108.636 17.16c-.593-4.077-4.146-6.96-8.05-6.39a7.444 7.444 0 0 0-6.346 8.54c.688 4.735 4.76 6.928 8.947 6.317a9.764 9.764 0 0 0 5.108-2.353l-1.836-2.547a7.205 7.205 0 0 1-3.709 1.683c-1.894.275-3.667-.439-4.414-2.346l10.414-1.516c-.012-.465-.05-.928-.114-1.389Zm-10.731.357c.11-1.86 1.371-3.276 3.034-3.515a3.518 3.518 0 0 1 3.918 2.498l-6.952 1.017ZM92.482 11.778h-3.884v13.654h3.884V11.778ZM92.482 7.278h-3.884v3.02h3.884v-3.02Z"/><path fill="#00DDB3" d="M23.903.5H8.097A8.097 8.097 0 0 0 0 8.597v15.806A8.097 8.097 0 0 0 8.097 32.5h15.806A8.097 8.097 0 0 0 32 24.403V8.597A8.097 8.097 0 0 0 23.903.5Z"/><path fill="#fff" d="M24.32 7.667c-5.508 0-7.549 3.933-9.19 7.093l-1.072 2.021c-1.738 3.35-3.037 5.388-6.383 5.388a1.582 1.582 0 1 0 0 3.164c5.51 0 7.552-3.933 9.193-7.093l1.07-2.021c1.74-3.351 3.039-5.388 6.383-5.388a1.583 1.583 0 1 0 0-3.164Z"/><path fill="#000" d="M110.876 25.464h6.658c5.629 0 9.175-3.978 9.175-8.769 0-4.79-3.546-8.769-9.175-8.769h-6.658v17.538Zm2.165-1.894V9.82h4.357c4.222 0 7.064 2.924 7.064 6.875 0 3.952-2.842 6.875-7.064 6.875h-4.357ZM136.153 25.735c3.87 0 6.929-3.031 6.929-6.848 0-3.843-3.059-6.874-6.929-6.874s-6.928 3.031-6.928 6.874c0 3.817 3.058 6.848 6.928 6.848Zm0-2.003c-2.733 0-4.817-2.084-4.817-4.845 0-2.787 2.084-4.871 4.817-4.871 2.734 0 4.818 2.084 4.818 4.871 0 2.761-2.084 4.845-4.818 4.845ZM152.382 25.735c1.975 0 3.762-.73 5.034-1.949l-1.191-1.542c-.92.92-2.274 1.488-3.762 1.488-2.896 0-4.899-2.11-4.899-4.845 0-2.814 2.084-4.871 4.845-4.871 1.38 0 2.571.46 3.383 1.218l1.299-1.462c-1.245-1.11-2.896-1.759-4.709-1.759-3.871 0-6.929 3.031-6.929 6.874 0 3.844 3.058 6.848 6.929 6.848ZM164.309 25.735c2.571 0 5.413-1.245 5.413-4.033 0-2.598-2.463-3.491-4.845-4.032-1.542-.325-3.004-.623-3.004-1.922 0-1.028 1.272-1.786 2.625-1.786 1.381 0 2.544.379 3.654 1.136l.812-1.678c-1.353-.92-2.679-1.407-4.493-1.407-2.219 0-4.709 1.38-4.709 3.762 0 2.517 2.219 3.194 4.655 3.816 1.597.406 3.194.785 3.194 2.165 0 1.191-1.489 2.03-3.302 2.03-1.922 0-3.329-.785-4.303-1.732l-.839 1.678c.757.785 2.463 2.003 5.142 2.003Z"/></svg>
